Newaita-dark/actions/24/system-shutdown.svg

<?xml version="1.0" encoding="UTF-8"?>
<svg xmlns="http://www.w3.org/2000/svg" xmlns:xlink="http://www.w3.org/1999/xlink" width="24pt" height="24pt" viewBox="0 0 24 24" version="1.1">
<defs>
<filter id="alpha" filterUnits="objectBoundingBox" x="0%" y="0%" width="100%" height="100%">
  <feColorMatrix type="matrix" in="SourceGraphic" values="0 0 0 0 1 0 0 0 0 1 0 0 0 0 1 0 0 0 1 0"/>
</filter>
<mask id="mask0">
  <g filter="url(#alpha)">
<rect x="0" y="0" width="24" height="24" style="fill:rgb(0%,0%,0%);fill-opacity:0.988235;stroke:none;"/>
  </g>
</mask>
<clipPath id="clip1">
  <rect x="0" y="0" width="24" height="24"/>
</clipPath>
<g id="surface5" clip-path="url(#clip1)">
<path style=" stroke:none;fill-rule:nonzero;fill:rgb(93.725491%,32.549021%,31.37255%);fill-opacity:1;" d="M 11.90625 6.140625 C 12.320312 6.140625 12.652344 6.472656 12.652344 6.886719 L 12.652344 17.304688 C 12.652344 17.714844 12.320312 18.046875 11.90625 18.046875 C 11.496094 18.046875 11.164062 17.714844 11.164062 17.304688 L 11.164062 6.886719 C 11.164062 6.472656 11.496094 6.140625 11.90625 6.140625 Z M 11.90625 6.140625 "/>
</g>
</defs>
<g id="surface1">
<path style=" stroke:none;fill-rule:nonzero;fill:rgb(93.725491%,32.549021%,31.37255%);fill-opacity:1;" d="M 11.90625 1.179688 C 5.859375 1.179688 0.992188 6.046875 0.992188 12.09375 C 0.992188 18.140625 5.859375 23.011719 11.90625 23.011719 C 17.953125 23.011719 22.824219 18.140625 22.824219 12.09375 C 22.824219 6.046875 17.953125 1.179688 11.90625 1.179688 Z M 11.90625 2.667969 C 17.128906 2.667969 21.335938 6.871094 21.335938 12.09375 C 21.335938 17.316406 17.128906 21.523438 11.90625 21.523438 C 6.683594 21.523438 2.480469 17.316406 2.480469 12.09375 C 2.480469 6.871094 6.683594 2.667969 11.90625 2.667969 Z M 11.90625 2.667969 "/>
<use xlink:href="#surface5" mask="url(#mask0)"/>
</g>
</svg>

<svg xmlns="http://www.w3.org/2000/svg" xmlns:xlink="http://www.w3.org/1999/xlink" width="32" height="32" viewBox="0 0 24 24"><defs><filter id="a" filterUnits="objectBoundingBox" x="0%" y="0%" width="100%" height="100%"><feColorMatrix in="SourceGraphic" values="0 0 0 0 1 0 0 0 0 1 0 0 0 0 1 0 0 0 1 0"/></filter><mask id="d"><path fill-opacity=".988" d="M0 0h24v24H0z" filter="url(#a)"/></mask><clipPath id="b"><path d="M0 0h24v24H0z"/></clipPath><g id="c" clip-path="url(#b)"><path d="M11.906 6.14c.414 0 .746.333.746.747v10.418c0 .41-.332.742-.746.742a.742.742 0 0 1-.742-.742V6.887c0-.414.332-.746.742-.746zm0 0" fill="#ef5350"/></g></defs><path d="M11.906 1.18A10.89 10.89 0 0 0 .992 12.094a10.893 10.893 0 0 0 10.914 10.918 10.896 10.896 0 0 0 10.918-10.918A10.893 10.893 0 0 0 11.906 1.18zm0 1.488a9.408 9.408 0 0 1 9.43 9.426 9.41 9.41 0 0 1-9.43 9.43 9.408 9.408 0 0 1-9.426-9.43 9.404 9.404 0 0 1 9.426-9.426zm0 0" fill="#ef5350"/><use xlink:href="#c" mask="url(#d)"/></svg>
